icons/ArrowRight.svg

<svg width="24" height="24" viewBox="0 0 24 24" fill="none" xmlns="http://www.w3.org/2000/svg">
<path fill-rule="evenodd" clip-rule="evenodd" d="M19.5303,11.4697c0.2929,0.2929 0.2929,0.7677 0,1.0606l-6,6c-0.2929,0.2929 -0.7677,0.2929 -1.0606,0c-0.2929,-0.2929 -0.2929,-0.7677 0,-1.0606l4.7196,-4.7197h-12.1893c-0.41421,0 -0.75,-0.3358 -0.75,-0.75c0,-0.4142 0.33579,-0.75 0.75,-0.75h12.1893l-4.7196,-4.71967c-0.2929,-0.29289 -0.2929,-0.76777 0,-1.06066c0.2929,-0.29289 0.7677,-0.29289 1.0606,0z" fill="#002B51"/>
</svg>

<svg width="24" height="24" viewBox="0 0 24 24" fill="none" xmlns="http://www.w3.org/2000/svg">
<path fill-rule="evenodd" clip-rule="evenodd" d="M19.5303 11.4697C19.8232 11.7626 19.8232 12.2374 19.5303 12.5303L13.5303 18.5303C13.2374 18.8232 12.7626 18.8232 12.4697 18.5303C12.1768 18.2374 12.1768 17.7626 12.4697 17.4697L17.1893 12.75H5C4.58579 12.75 4.25 12.4142 4.25 12C4.25 11.5858 4.58579 11.25 5 11.25H17.1893L12.4697 6.53033C12.1768 6.23744 12.1768 5.76256 12.4697 5.46967C12.7626 5.17678 13.2374 5.17678 13.5303 5.46967L19.5303 11.4697Z" fill="#002B51"/>
</svg>
